X: 4
T: The Devil Is Dead
R: barndance
M: 4/4
L: 1/8
K: Dmaj
A/G/| F>A A>B d>e f>d|B/B/B B>A d<c B>A|F>A A>B d>e f>d|g>e f<d e2 d :||g| f<a a>f d>f a<f| g/g/g g>f g>a (3bag| f<a a>f d>f a>f| g>b f/a/f e2 d>g|f<a a>f d>f a<f| g/g/g g>f g>a (3bag| f<a a>f d>f a>f| g>b f/a/f e2 d<B||e/e/e e>f g>e f>d| B/B/B B>A d<c B>A|F>A A>B d>e f>d| g>e f<d e2 d<B|e/e/e e>f g>e (3fed| B/B/B B>A d<c B>A|F>A A>B d>e f<d| g>b f/a/f e2 d||G| F>A A>F D>B A>F| E/E/E E>F G>B (3BAG|F>A A>F A<B A>F| G<B A<F E2 D>G|| F>A A>F D>B A>F| E/E/E E>F G>B (3BAG|F<A A>B d>f a<f| g>b f/a/f e2 d||


Tune 1990	Setting 15410

